X: 1
T: Calliope House
C: Dave Richardson, Boys of the Lough
L: 1/8
M: 6/8
O: arranged for highland bagpipes by Chris Caswell, 1988
K: D
A |: "D"dAA fAA | "F#"eAA fAA | "E"Bee e2 d | "G"efd BdB |
"D"ABA A2 G | "F#"A2 B d2 e |1 "B"f2 a fed | "A"e3 e2 A :|2 "D"f<af "E"edB | "D"d3 "G"dfg ||
|:"D"a3 faa | "F#"eaa faa | "G"g3 fgf | "E"efe edB |
"D"ABA A2 G | "F#"A2 B d2 e |1 "B"f2 a fed | "A"e3 efg :|2 "D"f<af "A"edB | "D"d3 d2 |]

%%scale 0.70
